usr/share/icons/biglinux-icons-material/symbolic/status/printer-warning-symbolic.svg

<svg width="16" height="16.007" version="1.1" xmlns="http://www.w3.org/2000/svg">
 <g fill="#dedede" stroke-linecap="round" stroke-linejoin="round" stroke-width="2" style="paint-order:stroke fill markers" aria-label="">
  <path d="m4 0v6h-3c-0.13541 0-0.26562 0.026042-0.39062 0.078125-0.11979 0.052087-0.22657 0.125-0.32031 0.21875-0.088543 0.08854-0.15885 0.19531-0.21094 0.32031-0.052083 0.11979-0.078125 0.2474-0.078125 0.38281v7h4v2h4.1016c-0.11167-0.31909-0.12027-0.67292 0.015625-1h-3.1172v-4h5.373l0.56836-1h-6.9414v3h-3v-6h14v4.6582l1 1.7637v-6.4219c0-0.13541-0.026038-0.26302-0.078125-0.38281-0.052087-0.125-0.125-0.23177-0.21875-0.32031-0.08854-0.09375-0.19531-0.16667-0.32031-0.21875-0.11979-0.052083-0.2474-0.078125-0.38281-0.078125h-3v-6h-8zm1 1h6v5h-6v-5zm-2.5 7c-0.13541 0-0.2526 0.049478-0.35156 0.14844s-0.14844 0.21615-0.14844 0.35156 0.049478 0.2526 0.14844 0.35156 0.21615 0.14844 0.35156 0.14844 0.2526-0.049478 0.35156-0.14844 0.14844-0.21615 0.14844-0.35156-0.049478-0.2526-0.14844-0.35156-0.21615-0.14844-0.35156-0.14844zm8.8438 5.3438-0.34375 0.60547v0.050781a1.0001 1.0001 0 0 1 0.5-0.5 1.0001 1.0001 0 0 1-0.15625-0.15625zm2.3125 0a1.0001 1.0001 0 0 1-0.15625 0.15625 1.0001 1.0001 0 0 1 0.5 0.5h0.029297l-0.37305-0.65625z" fill="#dedede"/>
 </g>
 <path d="m12.48 9.728a0.44 0.44 0 0 0-0.361 0.22l-3.06 5.397a0.437 0.437 0 0 0 0.378 0.655h6.125a0.437 0.437 0 0 0 0.379-0.655l-3.06-5.396a0.439 0.439 0 0 0-0.401-0.22zm-0.48 1.272h1v2h-1zm0 3h1v1h-1z" color="#000000" fill="#f9c440" stroke-linecap="round" stroke-linejoin="round" stroke-width="2" style="-inkscape-stroke:none"/>
</svg>

<svg xmlns="http://www.w3.org/2000/svg" width="16" height="16.007"><path fill="#dedede" stroke-linecap="round" stroke-linejoin="round" stroke-width="2" d="M4 0v6H1c-.135 0-.266.026-.39.078a1.03 1.03 0 0 0-.32.219.98.98 0 0 0-.212.32A.95.95 0 0 0 0 7v7h4v2h4.102c-.112-.32-.12-.673.015-1H5v-4h5.373l.568-1H4v3H1V7h14v4.658l1 1.764V7a.95.95 0 0 0-.078-.383.923.923 0 0 0-.219-.32.922.922 0 0 0-.32-.219A.95.95 0 0 0 15 6h-3V0H4zm1 1h6v5H5V1zM2.5 8c-.135 0-.253.05-.352.148S2 8.365 2 8.5s.05.253.148.352S2.365 9 2.5 9s.253-.05.352-.148S3 8.635 3 8.5s-.05-.253-.148-.352S2.635 8 2.5 8zm8.844 5.344-.344.605V14a1 1 0 0 1 .5-.5 1 1 0 0 1-.156-.156zm2.312 0a1 1 0 0 1-.156.156 1 1 0 0 1 .5.5h.03l-.374-.656z" aria-label="" style="paint-order:stroke fill markers"/><path fill="#f9c440" d="M12.48 9.728a.44.44 0 0 0-.361.22l-3.06 5.397a.437.437 0 0 0 .378.655h6.125a.437.437 0 0 0 .379-.655l-3.06-5.396a.439.439 0 0 0-.401-.22zM12 11h1v2h-1zm0 3h1v1h-1z" color="#000" style="-inkscape-stroke:none"/></svg>
